X:1
T: Maggie
C:
R:Strathspey
Q: 128
K:G
M:4/4
L:1/16
|:B2|G3E D3E G3A Be3|d3B AG3 E6 A2|G3E D3E G3A Be3|d3B AB3 G6 B2|
G3E D3E G3A Be3|d3B AG3 E6 A2|G3E D3E G3A Be3|d3B AB3 G6 d2|
g3f e3d e3d Be3|dB3 A3G E6 d2|g3e f3d e3d B3e|dB3 A3B G6 d2|
g3f e3d e3d Be3|dB3 A3G E6 A2|G3E D3E G3A Be3|d3B AB3 G6:|
